X:0
T:Battenkill Rambler
C:Copyright 2013 Caz Lewis
K:G
L:1/8
M:9/8
|:B2GG2BA3 | B2GG2B AFD | B2GG2BA2c | B2GG2B AFD | 
B2GG2BA3 | B2GG2B AFD | B2GG2BA2c | B2GG2B ABc | 
d3 cBAB2G | d3cBAG2B | d3 cBAB2G | A2DD2E FGA | 
d3 cBAB2G | d3cBAG2B | d3 cBAB2G | A2DD2E FGA :| G6
